X: 24757
T: Madonna Groove
R: reel
M: 4/4
K: Dmajor
dBGB Agfe|d3 A BcdB|A2 AF Agfe|d3 A BcdB|
A2 AF Agfe|d3 A BGdB|AF F2 Agfe|d3 A Bcde||
faab a3 f|gefd edBd|faab a3 f|gefd ebag|
fa a2 bd'af|gefd edBd|efga b2 af|e3 f g2 fe||

